salty/data/trash.svg

<svg xmlns="http://www.w3.org/2000/svg" width="24" height="24"><path d="M10 3L9 4.5H4V6h5.805l1-1.5h2.39l1 1.5H20V4.5h-5L14 3h-4zM5 7v12c0 1.108.892 2 2 2h10c1.108 0 2-.892 2-2V7h-1.5v12a.5.5 0 0 1-.5.5H7c-.277 0-.487-.223-.5-.5V7H5zm3 1v10h1.5V8H8zm3.25 0v10h1.5V8h-1.5zm3.25 0v10H16V8h-1.5z" fill="#fff" paint-order="stroke fill markers"/></svg>

<?xml version="1.0" encoding="UTF-8" standalone="no"?>
<svg
   xmlns:dc="http://purl.org/dc/elements/1.1/"
   xmlns:cc="http://creativecommons.org/ns#"
   xmlns:rdf="http://www.w3.org/1999/02/22-rdf-syntax-ns#"
   xmlns:svg="http://www.w3.org/2000/svg"
   xmlns="http://www.w3.org/2000/svg"
   xmlns:sodipodi="http://sodipodi.sourceforge.net/DTD/sodipodi-0.dtd"
   xmlns:inkscape="http://www.inkscape.org/namespaces/inkscape"
   version="1.1"
   width="24"
   height="24"
   viewBox="0 0 24 24"
   id="svg4"
   sodipodi:docname="trash.svg"
   inkscape:version="0.92.4 (5da689c313, 2019-01-14)">
  <metadata
     id="metadata10">
    <rdf:RDF>
      <cc:Work
         rdf:about="">
        <dc:format>image/svg+xml</dc:format>
        <dc:type
           rdf:resource="http://purl.org/dc/dcmitype/StillImage" />
        <dc:title></dc:title>
      </cc:Work>
    </rdf:RDF>
  </metadata>
  <defs
     id="defs8" />
  <sodipodi:namedview
     pagecolor="#ffffff"
     bordercolor="#666666"
     borderopacity="1"
     objecttolerance="10"
     gridtolerance="10"
     guidetolerance="10"
     inkscape:pageopacity="0"
     inkscape:pageshadow="2"
     inkscape:window-width="640"
     inkscape:window-height="480"
     id="namedview6"
     showgrid="false"
     inkscape:pagecheckerboard="true"
     inkscape:zoom="2.8284271"
     inkscape:cx="12"
     inkscape:cy="12"
     inkscape:current-layer="svg4">
    <inkscape:grid
       type="xygrid"
       id="grid817" />
  </sodipodi:namedview>
  <path
     style="opacity:1;vector-effect:none;fill:#ffffff;fill-opacity:1;fill-rule:nonzero;stroke:none;stroke-width:15;stroke-linecap:butt;stroke-linejoin:miter;stroke-miterlimit:10;stroke-dasharray:none;stroke-dashoffset:0;stroke-opacity:1;paint-order:stroke fill markers"
     d="M 10 3 L 9 4.5 L 4 4.5 L 4 6 L 9.8046875 6 L 10.804688 4.5 L 13.195312 4.5 L 14.195312 6 L 20 6 L 20 4.5 L 15 4.5 L 14 3 L 10 3 z M 5 7 L 5 19 C 5 20.108 5.892 21 7 21 L 17 21 C 18.108 21 19 20.108 19 19 L 19 7 L 17.5 7 L 17.5 19 C 17.5 19.277 17.277 19.5 17 19.5 L 7 19.5 C 6.723 19.5 6.5125779 19.276714 6.5 19 L 6.5 7 L 5 7 z M 8 8 L 8 18 L 9.5 18 L 9.5 8 L 8 8 z M 11.25 8 L 11.25 18 L 12.75 18 L 12.75 8 L 11.25 8 z M 14.5 8 L 14.5 18 L 16 18 L 16 8 L 14.5 8 z "
     id="rect827" />
</svg>
